X:1
T:June Apple
C:Traditional
M:4/4    %(3/4, 4/4, 6/8)
L:1/4    %(1/8, 1/4)
V:1 clef=treble
%%continueall 1
%%partsbox 1
%%writehistory 1
N:Play AABB
K:DMix    %(D, C)
P:A
|A|:"D"d A d A|d A F D|"C"=c B =c B|=c B A2
|"D"d A d A|d A F D|F F/2G/2 F "A"E|1"D"D3 A:|2"D"D3 E||
P:B
|:"D"F2 D2|F G A2|D D E F|z "G"G G z|"D"F2 D2
|F G A2|D D "A"E/2F/2 E|1"D"D3 E:|2"D"D3||
